X: 20654
T: John Stephen Of Chance Inn
R: strathspey
M: 4/4
K: Fmajor
C|F2 F>G A>B c<A|f>e d>c A>B c<A|d>c B>d c>A F>A|G<G g>f (3edc (3BAG|
F2 F>G A>B c<A|f>e d>c A>B c<A|d>c B>d c>A F>f|(3edc (3BAG F2F||
g|a>g f>a g>e c>e|f>e d>f e<a A2|d>c B>d c>A F>A|G<G g>f e>d e<c|
a>g f>a g<c' c>e|f>e d>f e<a A2|d>c B>d c>A F>f|(3edc (3BAG F2F||

